docs/icons/qijishow.svg

<svg xmlns="http://www.w3.org/2000/svg" xmlns:xlink="http://www.w3.org/1999/xlink" width="29.958249102439027" height="29.958249102439027" viewBox="0 0 29.958249102439027 29.958249102439027" fill="none"><defs><rect id="path_0" x="0" y="0" width="29.958249102439027" height="29.958249102439027" /><rect id="path_1" x="0" y="0" width="24" height="23.76789168278529" /></defs><g opacity="1" transform="translate(0 0)  rotate(0 14.979124551219513 14.979124551219513)"><mask id="bg-mask" fill="white"><use xlink:href="#path_0"></use></mask><g mask="url(#bg-mask)" ><path id="路径 1" fill-rule="evenodd" transform="translate(0 0)  rotate(0 14.979124551219513 14.979124551219513)" opacity="1" d="M0,29.96L29.96,29.96L29.96,0L0,0L0,29.96Z " /><g opacity="1" transform="translate(2.97912455121957 3.0951787098268255)  rotate(0 12 11.883945841392645)"><mask id="bg-mask" fill="white"><use xlink:href="#path_1"></use></mask><g mask="url(#bg-mask)" ><path id="分组 1" fill-rule="evenodd" style="fill:#3CFFDC" transform="translate(4.507125945841394 1.2484895860735)  rotate(0 7.483357433674927 10.632303892006089)" opacity="1" d="M11.2375 15.9878C11.1375 16.0278 11.0475 16.1078 10.9975 16.2078L9.36749 19.8578C9.29749 19.9978 9.31749 20.1578 9.40749 20.2778C9.49749 20.4078 9.64749 20.4678 9.79749 20.4578C9.94749 20.4378 10.0875 20.3478 10.1475 20.2078L11.7775 16.5578C11.8775 16.3478 11.7875 16.0878 11.5675 15.9978C11.4675 15.9478 11.3475 15.9478 11.2375 15.9878Z M12.6325 17.8821L11.7625 19.8321C11.6625 20.0421 11.7625 20.2921 11.9725 20.3921C12.1825 20.4821 12.4425 20.3921 12.5325 20.1721L13.4125 18.2321C13.5025 18.0121 13.4125 17.7621 13.1925 17.6721C12.9825 17.5721 12.7325 17.6721 12.6325 17.8821Z M2.77 17.57C2.67 17.79 2.6 18.02 2.57 18.26C3.08 18.27 3.52 18.61 3.67 19.1C3.82 19.58 3.64 20.11 3.22 20.41C3.46 20.67 3.76 20.89 4.09 21.03C5.41 21.63 6.96 21.04 7.56 19.72L14.74 3.73C15.02 3.1 15.04 2.37 14.8 1.72C14.55 1.07 14.05 0.55 13.42 0.26C13.15 0.14 12.87 0.07 12.58 0.04C12.43 0.02 12.27 0 12.11 0L2.62 0C1.18 0 0 1.18 0 2.62C0 4.07 1.18 5.25 2.62 5.25L7.79 5.25C7.83 5.25 7.87 5.26 7.91 5.28C8.09 5.35 8.16 5.56 8.08 5.73C8.08 5.74 8.08 5.74 8.07 5.75L2.77 17.57Z M4.58164 2.59287C4.58164 1.56287 3.75164 0.732866 2.72164 0.732866C1.69164 0.732866 0.861641 1.56287 0.861641 2.59287C0.861641 3.62287 1.69164 4.45287 2.72164 4.45287C3.75164 4.45287 4.58164 3.62287 4.58164 2.59287Z " /></g></g></g></g></svg>

<svg xmlns="http://www.w3.org/2000/svg" xmlns:xlink="http://www.w3.org/1999/xlink" width="29.958" height="29.958" fill="none" xmlns:v="https://vecta.io/nano"><defs><path id="A" d="M0 0h29.958v29.958H0z"/><path id="B" d="M0 0h24v23.768H0z"/></defs><g transform="matrix(1 0 0 1 0 0)"><mask id="D" fill="#fff"><use xlink:href="#A"/></mask><g mask="url(#D)"><g transform="matrix(1 0 0 1 2.979125 3.095179)"><mask id="D" fill="#fff"><use xlink:href="#B"/></mask><g mask="url(#D)"><path fill-rule="evenodd" transform="matrix(1 0 0 1 4.507126 1.24849)" d="M11.238 15.988c-.1.04-.19.12-.24.22l-1.63 3.65c-.07.14-.05.3.04.42.09.13.24.19.39.18a.44.44 0 0 0 .35-.25l1.63-3.65c.1-.21.01-.47-.21-.56a.42.42 0 0 0-.33-.01zm1.395 1.894l-.87 1.95c-.1.21 0 .46.21.56.21.09.47 0 .56-.22l.88-1.94c.09-.22 0-.47-.22-.56-.21-.1-.46 0-.56.21zM2.77 17.57c-.1.22-.17.45-.2.69.51.01.95.35 1.1.84.15.48-.03 1.01-.45 1.31.24.26.54.48.87.62a2.62 2.62 0 0 0 3.47-1.31l7.18-15.99a2.69 2.69 0 0 0 .06-2.01c-.25-.65-.75-1.17-1.38-1.46-.27-.12-.55-.19-.84-.22L12.11 0H2.62A2.63 2.63 0 0 0 0 2.62c0 1.45 1.18 2.63 2.62 2.63h5.17c.04 0 .08.01.12.03.18.07.25.28.17.45 0 .01 0 .01-.01.02l-5.3 11.82zM4.582 2.593c0-1.03-.83-1.86-1.86-1.86s-1.86.83-1.86 1.86.83 1.86 1.86 1.86 1.86-.83 1.86-1.86z" fill="#3cffdc"/></g></g></g></g></svg>
